src/main/resources/static/css/primeicons/raw-svg/mobile.svg

<?xml version="1.0" encoding="UTF-8"?>
<svg id="mobile" xmlns="http://www.w3.org/2000/svg" viewBox="0 0 24 24">
  <path d="M16,3.25H8c-.96,0-1.75,.79-1.75,1.75v14c0,.96,.79,1.75,1.75,1.75h8c.96,0,1.75-.79,1.75-1.75V5c0-.96-.79-1.75-1.75-1.75Zm.25,15.75c0,.14-.11,.25-.25,.25H8c-.14,0-.25-.11-.25-.25V5c0-.14,.11-.25,.25-.25h8c.14,0,.25,.11,.25,.25v14Zm-3.25-3c0,.55-.45,1-1,1s-1-.45-1-1,.45-1,1-1,1,.45,1,1Z"/>
</svg>

<svg xmlns="http://www.w3.org/2000/svg" viewBox="0 0 24 24"><g id="mobile"><path d="M16,3.25H8A1.76,1.76,0,0,0,6.25,5V19A1.76,1.76,0,0,0,8,20.75h8A1.76,1.76,0,0,0,17.75,19V5A1.76,1.76,0,0,0,16,3.25ZM16.25,19a.25.25,0,0,1-.25.25H8A.25.25,0,0,1,7.75,19V5A.25.25,0,0,1,8,4.75h8a.25.25,0,0,1,.25.25Z"/><path d="M12,14.5A1.5,1.5,0,1,0,13.5,16,1.5,1.5,0,0,0,12,14.5ZM12,16v0Z"/></g></svg>
